X:1
T:God Is So Good
T:Traditional tune
T:God Is So Good
T:Public Domain
C:Traditional tune
Z:Public Domain
%%score ( 1 2 ) 3
L:1/8
M:4/4
K:Eb
V:1 treble 
V:2 treble 
V:3 bass 
V:1
 [B,E]4 [B,E]2 [EG]2 | [DF]8 | [DF]4 [DF]2 [DA]2 | [EG]8 | [EG]4 [EG]2 [_DB]2 | [CA]4 F2 [EA]2 | %6
 [EG]4 [DF]4 | [B,E]8 |] %8
V:2
 x8 | x8 | x8 | x8 | x8 | x4 E2 x2 | x8 | x8 |] %8
V:3
 [E,G,]4 [E,G,]2 [E,B,]2 | [B,,B,]8 | [B,,B,]4 [B,,B,]2 [B,,B,]2 | [E,B,]8 | %4
 [E,B,]4 [E,B,]2 [E,G,]2 | [A,,A,]4 [C,A,]2 [_C,A,]2 | [B,,B,]4 [B,,A,]4 | [E,G,]8 |] %8

